X:1
T:O Crown of Rejoicing
T:Philip Paul Bliss (1838-1876)
T:O Crown of Rejoicing
T:Public Domain
T:Public Domain
T:Public Domain
C:Philip Paul Bliss (1838-1876)
Z:Public Domain
%%score ( 1 2 ) ( 3 4 )
L:1/8
M:9/8
K:C
V:1 treble 
V:2 treble 
V:3 bass 
V:4 bass 
V:1
 [EG][EG][CE] [DF] | [EG]4 [FA][GB] [Ac][GB][FA] | [EG]3- [EG]2 [EG] [EG][DF][^CE] | %3
w: 1.~O crown of re-|joic- ing that’s wait- ing for|me, * When fin- ished my|
w: 2.~O won- der- ful|song that in glo- ry I’ll|sing, * To Him who re-|
w: 3.~O joy ev- er-|last- ing when Heav- en is|won, * For- ev- er in|
w: 4.~O won- der- ful|name which the glor- i- fied|bear, * The new name which|
 [DF]4 [EG][FA] [FA][EG][DF] | [CE]3- [CE]2 [EG] [EG][CE][DF] | [EG]4 [FA][FB] [Ec][DB][Ec] | %6
w: course, and when Je- sus I|see, * And when from my|Lord comes the sweet sound- ing|
w: deemed me, to Je- sus my|King; * All glo- ry and|hon- or to Him shall be|
w: glo- ry to shine as the|sun; * No sor- row nor|sigh- ing— these all flee a-|
w: Je- sus be- stows on us|there; * To him that o’er-|com- eth ’twill on- ly be|
 [FA]3- [FA]2 [FA] [FA][F^G][FA] | [^Fd]4 [Fe][Fd] [Fc][FB][FA] | G3- G2 || %9
w: word: * “Re- ceive, faith- ful|ser- vant, the joy of thy|Lord.” *|
w: giv’n, * And prais- es un-|ceas- ing, for- ev- er in|Heav’n. *|
w: way, * No night there, no|sha- dows— ’tis one end- less|day. *|
w: giv’n, * Blest sign of ap-|prov- al, our wel- come to|Heav’n. *|
"^Refrain" [FG][EG][^D^F] [EG] | [Ge]4 [Fd][Ec] [Ac][GB][FA] | [EG]3- [EG]2 [EG] [EG][^D^F][EG] | %12
w: |||
w: crown of re- joic-|ing, O won- der- ful song;|O * joy ev- er- last-|
w: |||
w: |||
 [Fd]4 [Fd][Fd] [Fd][Ec][DB] | [Ec]3- [Ec]2 [CE] [CE][C^D][CE] | [CA]4 [EA][EA] [E^G][EA] | %15
w: |||
w: ing, O glor- i- fied throng;|O * beau- ti- ful home,|my home can it be?|
w: |||
w: |||
 [Ac]6 [_Ad]3 | [Ge]4 [Fd][Ec] [Ge]2 [Fd] | [Ec]3- [Ec]2 |] %18
w: |||
w: O glo-|ry re- served for me?||
w: |||
w: |||
V:2
 x4 | x9 | x9 | x9 | x9 | x9 | x9 | x9 | G3- G2 || x4 | x9 | x9 | x9 | x9 | x8 | x9 | x9 | x5 |] %18
w: ||||||||||||||||||
w: ||||||||O *||||||||||
V:3
 z4 | z8 z | z8 z | z8 z | z8 z | z8 z | z8 z | z8 z | z2 z3 || z4 | %10
w: ||||||||||
 [C,C][C,C][C,C] [C,C][C,C][C,C] [C,C][C,C][C,C] | [C,C][C,C][C,C] [C,C]2 z4 | %12
w: Crown of re- joic- ing, O won- der- ful,|won- der- ful song;|
 G,G,G, G,G,G, G,G,G, | [C,G,][C,G,][C,G,] [C,G,]2 z4 | %14
w: Joy ev- er- last- ing, O glor- i- fied,||
 [A,,A,][A,,A,] [A,,A,]2 [A,C][A,C] [A,B,][A,C] | [F,C]6 [F,C]3 | [G,C]4 G,G, G,2 G, | %17
w: |||
 [C,G,]3- [C,G,]2 |] %18
w: |
V:4
 x4 | x9 | x9 | x9 | x9 | x9 | x9 | x9 | x5 || x4 | x9 | x9 | G,G,G, G,G,G, G,G,G, | x9 | x8 | x9 | %16
w: ||||||||||||glor- i- fied throng; * * * * *||||
 x4 G,G, G,2 G, | x5 |] %18
w: ||

